src/icons/5x4.svg

<svg xmlns="http://www.w3.org/2000/svg" width="512" height="512" viewBox="0 0 512 512">
    <path d="M356.3 367.2H416v42.3h-59.7v-42.3zm-86.7 0h59.7v42.3h-59.7v-42.3zm-86.8 0h59.7v42.3h-59.7v-42.3zm-86.8 0h59.7v42.3H96v-42.3zm260.3-69.4H416v42.3h-59.7v-42.3zm-86.7 0h59.7v42.3h-59.7v-42.3zm-86.8 0h59.7v42.3h-59.7v-42.3zm-86.8 0h59.7v42.3H96v-42.3zm260.3-69.5H416v42.3h-59.7v-42.3zm-86.7 0h59.7v42.3h-59.7v-42.3zm-86.8 0h59.7v42.3h-59.7v-42.3zm-86.8 0h59.7v42.3H96v-42.3zm260.3-69.4H416v42.3h-59.7v-42.3zm-86.7 0h59.7v42.3h-59.7v-42.3zm-86.8 0h59.7v42.3h-59.7v-42.3zm-86.8 0h59.7v42.3H96v-42.3zm260.3-69.4H416v42.3h-59.7V89.5zm-86.7 0h59.7v42.3h-59.7V89.5zm-86.8 0h59.7v42.3h-59.7V89.5zm-86.8 0h59.7v42.3H96V89.5z"/>
</svg>

<?xml version="1.0" encoding="UTF-8"?>
<svg width="512px" height="512px" viewBox="0 0 512 512" version="1.1" xmlns="http://www.w3.org/2000/svg" xmlns:xlink="http://www.w3.org/1999/xlink">
    <!-- Generator: Sketch 62 (91390) - https://sketch.com -->
    <title>5x4</title>
    <desc>Created with Sketch.</desc>
    <g id="5x4" stroke="none" stroke-width="1" fill="none" fill-rule="evenodd">
        <path d="M356.3,367.2 L416,367.2 L416,409.5 L356.3,409.5 L356.3,367.2 Z M269.6,367.2 L329.3,367.2 L329.3,409.5 L269.6,409.5 L269.6,367.2 Z M182.8,367.2 L242.5,367.2 L242.5,409.5 L182.8,409.5 L182.8,367.2 Z M96,367.2 L155.7,367.2 L155.7,409.5 L96,409.5 L96,367.2 L96,367.2 Z M356.3,297.8 L416,297.8 L416,340.1 L356.3,340.1 L356.3,297.8 L356.3,297.8 Z M269.6,297.8 L329.3,297.8 L329.3,340.1 L269.6,340.1 L269.6,297.8 L269.6,297.8 Z M182.8,297.8 L242.5,297.8 L242.5,340.1 L182.8,340.1 L182.8,297.8 L182.8,297.8 Z M96,297.8 L155.7,297.8 L155.7,340.1 L96,340.1 L96,297.8 L96,297.8 Z M356.3,228.3 L416,228.3 L416,270.6 L356.3,270.6 L356.3,228.3 L356.3,228.3 Z M269.6,228.3 L329.3,228.3 L329.3,270.6 L269.6,270.6 L269.6,228.3 L269.6,228.3 Z M182.8,228.3 L242.5,228.3 L242.5,270.6 L182.8,270.6 L182.8,228.3 L182.8,228.3 Z M96,228.3 L155.7,228.3 L155.7,270.6 L96,270.6 L96,228.3 L96,228.3 Z M356.3,158.9 L416,158.9 L416,201.2 L356.3,201.2 L356.3,158.9 L356.3,158.9 Z M269.6,158.9 L329.3,158.9 L329.3,201.2 L269.6,201.2 L269.6,158.9 L269.6,158.9 Z M182.8,158.9 L242.5,158.9 L242.5,201.2 L182.8,201.2 L182.8,158.9 L182.8,158.9 Z M96,158.9 L155.7,158.9 L155.7,201.2 L96,201.2 L96,158.9 L96,158.9 Z M356.3,89.5 L416,89.5 L416,131.8 L356.3,131.8 L356.3,89.5 Z M269.6,89.5 L329.3,89.5 L329.3,131.8 L269.6,131.8 L269.6,89.5 Z M182.8,89.5 L242.5,89.5 L242.5,131.8 L182.8,131.8 L182.8,89.5 Z M96,89.5 L155.7,89.5 L155.7,131.8 L96,131.8 L96,89.5 Z" id="Shape" fill="#000000" fill-rule="nonzero"></path>
    </g>
</svg>
